src/assets/icons/tailwindcss.svg

<svg width="49" height="30" viewBox="0 0 49 30" fill="none" xmlns="http://www.w3.org/2000/svg">
<path d="M12.25 10C13.8833 3.33333 17.9667 0 24.5 0C34.3 0 35.525 7.5 40.425 8.75C43.6917 9.58333 46.55 8.33333 49 5C47.3667 11.6667 43.2833 15 36.75 15C26.95 15 25.725 7.5 20.825 6.25C17.5583 5.41667 14.7 6.66667 12.25 10ZM0 25C1.63333 18.3333 5.71667 15 12.25 15C22.05 15 23.275 22.5 28.175 23.75C31.4417 24.5833 34.3 23.3333 36.75 20C35.1167 26.6667 31.0333 30 24.5 30C14.7 30 13.475 22.5 8.575 21.25C5.30833 20.4167 2.45 21.6667 0 25Z" fill="#44A8B3"/>
</svg>

<svg xmlns="http://www.w3.org/2000/svg" width="49" height="30" fill="none"><path fill="#44A8B3" d="M12.25 10C13.883 3.333 17.967 0 24.5 0c9.8 0 11.025 7.5 15.925 8.75C43.692 9.583 46.55 8.333 49 5c-1.633 6.667-5.717 10-12.25 10-9.8 0-11.025-7.5-15.925-8.75-3.267-.833-6.125.417-8.575 3.75ZM0 25c1.633-6.667 5.717-10 12.25-10 9.8 0 11.025 7.5 15.925 8.75 3.267.833 6.125-.417 8.575-3.75-1.633 6.667-5.717 10-12.25 10-9.8 0-11.025-7.5-15.925-8.75C5.308 20.417 2.45 21.667 0 25Z"/></svg>
